public/assets/images/services/approach/designer-giving-a-keynote.svg

<svg width="164" height="164" viewBox="0 0 164 164" fill="none" xmlns="http://www.w3.org/2000/svg">
<path d="M86.9258 102.402C100.343 101.722 112.636 101.413 114.618 102.525C115.639 103.099 117.227 110.643 117.957 115.688C122.078 115.196 127.257 114.743 132.432 114.391C131.663 110.509 131.189 108.077 129.446 104.326C129.182 103.758 129.905 103.528 130.2 104.047C131.946 107.245 133.12 110.724 133.666 114.327C140.671 113.867 147.583 113.589 151.915 113.589C151.423 109.349 148.698 99.5799 143.813 94.5705C140.048 90.7092 132.743 87.2725 126.278 86.4591C126.178 87.3551 125.832 88.206 125.28 88.9184C124.727 89.6308 123.989 90.1772 123.146 90.4976C119.692 91.8547 113.388 92.2114 107.764 89.1225C101.832 90.8149 90.9594 97.2716 86.9258 102.402Z" fill="#71B6F6"/>
<path d="M159.248 132.577C123.871 133.242 88.6539 133.111 53.2955 133.151C52.5804 133.151 52.4189 134.268 53.1585 134.282C88.4374 134.933 124.137 134.166 159.41 133.734C160.164 133.727 159.998 132.563 159.248 132.577Z" fill="#71B6F6"/>
<path d="M72.1422 62.6775C75.774 62.7456 93.4737 62.4159 95.3556 62.3347C95.923 62.3101 95.9083 61.3311 95.3556 61.3311C92.8292 61.3311 76.2078 61.6517 72.1422 61.8649C72.0439 61.8782 71.9537 61.9267 71.8884 62.0014C71.8231 62.0761 71.7871 62.172 71.7871 62.2712C71.7871 62.3704 71.8231 62.4663 71.8884 62.541C71.9537 62.6157 72.0439 62.6642 72.1422 62.6775Z" fill="#71B6F6"/>
<path d="M57.6461 58.1437C57.382 58.2815 52.8154 63.7706 54.9196 63.1178C55.218 63.0252 58.1996 59.2474 58.3463 58.5701C58.3639 58.4823 58.3541 58.3913 58.3182 58.3093C58.2823 58.2273 58.222 58.1583 58.1455 58.1117C58.069 58.0652 57.9801 58.0433 57.8907 58.049C57.8014 58.0547 57.716 58.0878 57.6461 58.1437Z" fill="#71B6F6"/>
<path d="M47.6954 45.674C49.164 45.7428 79.0686 45.6682 80.8513 45.4927C81.1044 45.4592 81.3361 45.3328 81.5014 45.1382C81.6667 44.9436 81.7539 44.6945 81.746 44.4392C81.7382 44.184 81.6358 43.9407 81.4589 43.7566C81.2819 43.5725 81.0429 43.4607 80.7881 43.4427C72.4659 43.5461 55.1656 43.5887 47.7421 43.7511C46.6286 43.7765 46.5351 45.6215 47.6954 45.674Z" fill="#71B6F6"/>
<path d="M89.5553 77.2309C87.6307 77.2309 72.9978 77.0669 71.9613 77.3629C71.6087 77.4646 71.4693 78.0353 71.8925 78.1558C72.9978 78.4732 87.5545 78.3124 89.5643 78.3124C91.5741 78.3124 93.5249 78.3846 95.4929 78.3124C96.0948 78.2903 96.0505 77.2817 95.4535 77.2555C93.4954 77.1685 91.5175 77.2309 89.5553 77.2309Z" fill="#71B6F6"/>
<path d="M71.7308 84.8921C71.6065 84.9291 71.5019 85.0135 71.4396 85.1271C71.3772 85.2407 71.3622 85.3743 71.3978 85.4989C71.5668 86.0729 70.8083 85.8761 95.7469 86.2919C95.8845 86.2779 96.012 86.2133 96.1048 86.1107C96.1975 86.008 96.2488 85.8746 96.2488 85.7363C96.2488 85.598 96.1975 85.4646 96.1048 85.362C96.012 85.2594 95.8845 85.1948 95.7469 85.1808C71.8226 84.7946 73.3076 84.77 71.7308 84.8921Z" fill="#71B6F6"/>
<path d="M95.2137 70.6758C95.3471 70.6668 95.4725 70.6085 95.5653 70.5123C95.6582 70.4161 95.7119 70.2888 95.7161 70.1551C95.7203 70.0215 95.6746 69.891 95.588 69.7892C95.5014 69.6873 95.3799 69.6213 95.2473 69.604C91.6885 69.5056 75.1278 69.3679 72.1233 69.9665C71.6313 70.064 71.7412 70.7807 72.2111 70.8225C74.7523 71.0513 78.6374 70.1977 95.2137 70.6758Z" fill="#71B6F6"/>
<path d="M117.086 56.1077C117.131 49.0442 117.459 40.2325 116.866 33.3789C116.85 33.276 116.796 33.1827 116.715 33.1172C116.634 33.0516 116.531 33.0184 116.427 33.0239C116.323 33.0294 116.225 33.0733 116.151 33.147C116.078 33.2207 116.034 33.3191 116.029 33.4232C115.836 36.7114 116.017 51.9896 116.029 56.1864C116.03 56.876 117.082 56.7981 117.086 56.1077Z" fill="#71B6F6"/>
<path d="M55.2044 88.8322C56.2205 89.9454 57.3009 90.9982 58.4401 91.9851C58.9321 92.4484 59.6898 91.7096 59.1945 91.2471C58.1327 90.179 57.0166 89.1663 55.8505 88.2131C55.4955 87.986 54.9305 88.4509 55.2044 88.8322Z" fill="#71B6F6"/>
<path d="M9.75803 33.3789C9.75803 32.7623 8.78715 32.6499 8.77895 33.2813C8.45587 59.4033 8.88719 89.7867 10.1352 115.773C10.1697 116.493 11.2832 116.317 11.2463 115.602C9.92777 88.1131 9.72031 60.8907 9.75803 33.3789Z" fill="#71B6F6"/>
<path d="M22.0927 91.667C21.8172 92.077 22.4559 92.5985 22.7782 92.2155C23.1939 91.7235 25.6047 88.9298 25.4842 88.3287C25.1521 86.7363 22.5634 90.9708 22.0927 91.667Z" fill="#71B6F6"/>
<path d="M40.1321 78.4158C39.7114 78.3379 37.0432 80.706 36.5044 81.2202C31.4672 77.9262 31.9682 78.7372 32.0305 80.7282C32.0495 82.09 32.1442 83.4498 32.3142 84.8011C32.3757 85.2283 33.0252 85.1537 33.0522 84.738C33.1547 83.2152 32.9587 81.6974 32.9341 80.1755C37.3695 82.8815 35.9985 82.7995 40.1403 79.4063C40.6323 79.95 42.975 82.2296 43.6843 82.1435C44.2583 82.0722 46.1911 79.4752 46.6511 78.9217C46.6511 80.0968 46.6888 83.4506 47.0373 84.4001C47.2177 84.8921 47.6933 84.7183 47.7179 84.2288C47.7786 83.1857 47.6523 80.7134 47.6548 79.5097C47.6548 78.1386 47.6507 77.7877 47.0767 76.9677C45.8303 75.1866 42.6733 70.8234 40.7471 68.4552C39.0505 66.3683 38.9759 66.3232 37.7853 68.1666C35.9509 71.0112 32.8718 76.5306 32.4011 77.5802C32.2019 78.0222 32.8833 78.2305 33.1203 77.9033C33.9091 76.8135 35.6951 73.6098 36.5175 72.2002C38.3666 72.274 40.2185 72.2428 42.064 72.1067C43.5807 73.9113 45.0304 75.7712 46.41 77.6827L43.5859 81.1095C43.2014 80.8044 40.5577 78.4945 40.1321 78.4158Z" fill="#71B6F6"/>
<path d="M54.2602 115.128C49.8544 114.882 13.9769 115.075 12.5772 115.292C12.4737 115.325 12.3841 115.392 12.3226 115.482C12.2611 115.572 12.231 115.679 12.2371 115.788C12.2432 115.896 12.2851 116 12.3563 116.082C12.4275 116.164 12.5239 116.221 12.6305 116.242C26.1957 116.281 40.5925 116.173 54.1815 116.188C54.8424 116.188 54.9556 115.169 54.2602 115.128Z" fill="#71B6F6"/>
<path d="M23.8218 64.356C24.3072 64.898 25.0518 64.2191 24.6483 63.759C23.6693 62.6479 21.5717 60.1248 20.6049 59.2753C20.222 58.9383 19.7029 59.4655 19.9735 59.8673C20.6689 60.9046 22.8632 63.2867 23.8218 64.356Z" fill="#71B6F6"/>
<path d="M39.6055 59.532C39.667 57.4037 39.5411 55.2742 39.2292 53.168C39.186 53.0922 39.1217 53.0306 39.0442 52.9906C38.9667 52.9507 38.8793 52.934 38.7925 52.9427C38.7058 52.9513 38.6234 52.985 38.5553 53.0395C38.4873 53.0941 38.4365 53.1672 38.4092 53.25C38.3428 55.3759 38.4459 57.5037 38.7175 59.6132C38.7422 59.719 38.8043 59.8123 38.8924 59.8758C38.9805 59.9394 39.0886 59.969 39.1968 59.9591C39.305 59.9492 39.406 59.9005 39.4811 59.822C39.5562 59.7435 39.6004 59.6405 39.6055 59.532Z" fill="#71B6F6"/>
<path d="M40.3234 91.2799C40.3234 91.9605 40.1422 96.4787 40.3866 97.0716C40.4298 97.1463 40.4919 97.2084 40.5667 97.2515C40.6414 97.2947 40.7262 97.3174 40.8126 97.3174C40.8989 97.3174 40.9837 97.2947 41.0585 97.2515C41.1333 97.2084 41.1954 97.1463 41.2386 97.0716C41.4936 96.4205 41.2041 92.1762 41.1705 91.2799C41.1262 90.8002 40.3234 90.7904 40.3234 91.2799Z" fill="#71B6F6"/>
<path d="M19.8067 76.4576C29.7656 57.728 52.4665 59.696 60.8149 74.9398C50.9519 89.9925 31.6294 92.2713 19.7616 77.7983C19.3909 77.3473 18.9326 77.9238 19.2696 78.3961C29.7033 92.9101 51.9966 91.0159 61.2019 76.3461C61.5018 75.9732 61.6769 75.5155 61.7023 75.0377C61.7278 74.5599 61.6024 74.0862 61.3438 73.6835C51.2209 56.3471 25.8681 59.4656 19.1212 76.014C18.9203 76.506 19.5664 76.9102 19.8067 76.4576Z" fill="#71B6F6"/>
<path d="M110.58 57.4344C108.015 57.9264 105.753 63.5295 108.583 66.1526C110.315 67.759 118.295 67.8271 123.132 67.6213C123.167 68.2132 123.294 68.7962 123.508 69.349C123.701 69.841 124.278 69.9968 124.135 69.1096C124.056 68.6042 124.02 68.0932 124.027 67.5819C124.779 67.5493 125.53 67.4946 126.279 67.4179C126.149 68.5105 125.961 69.5955 125.716 70.6684C125.581 71.2563 126.241 71.3662 126.465 70.8053C127.152 69.0313 127.429 67.1254 127.278 65.2293C126.986 61.0498 115.266 56.534 110.58 57.4344ZM111.388 59.6418C110.208 59.9116 109.929 61.7041 109.822 62.6627C109.637 64.3027 108.592 63.1547 108.842 61.7123C109.034 60.625 109.963 58.8538 111.319 59.0301C111.397 59.0259 111.475 59.0519 111.535 59.1027C111.595 59.1535 111.633 59.2253 111.642 59.3035C111.651 59.3817 111.629 59.4602 111.582 59.5231C111.535 59.586 111.465 59.6285 111.388 59.6418Z" fill="#191919"/>
<path d="M120.17 74.3084C120.824 73.2014 121.273 71.986 121.497 70.7201C122.599 70.9196 123.649 71.3378 124.586 71.9501C125.144 72.1903 125.355 71.4581 125.078 71.2309C124.072 70.4108 122.841 69.9127 121.548 69.8017C120.951 68.6709 116.413 68.4077 115.713 69.6008C115.541 69.5046 115.352 69.4457 115.156 69.4281C114.96 69.4104 114.763 69.4343 114.577 69.4983C114.22 68.5192 110.196 68.274 109.193 69.4048C108.038 69.2777 107.558 70.3445 109.085 70.3347C109.141 71.3944 109.337 72.4421 109.668 73.4507C110.063 74.2592 112.905 74.2469 113.471 73.8377C114.144 73.3514 114.45 71.2285 114.641 70.4109C114.918 70.3238 115.218 70.3414 115.483 70.4601C115.477 71.5562 115.602 72.649 115.855 73.7155C116.289 74.5798 119.54 75.0529 120.17 74.3084ZM113.16 72.898C113.026 73.2202 112.906 73.2973 111.828 73.2547C110.008 73.1833 110.389 73.5778 109.832 69.9116C111.114 69.4761 112.504 69.4761 113.787 69.9116C113.769 70.9377 113.556 71.9512 113.16 72.898ZM116.587 73.2694C116.384 72.2615 116.311 71.2316 116.371 70.2051C117.777 69.7031 119.321 69.7502 120.694 70.3371C120.617 71.1435 120.41 71.9322 120.082 72.6725C119.616 73.6917 119.539 73.8254 118.07 73.7057C117.365 73.6483 116.686 73.4917 116.587 73.2703V73.2694Z" fill="#191919"/>
<path d="M117.282 72.6143C117.435 73.167 118.512 73.2317 118.261 71.6352C118.118 70.7266 116.837 71.012 117.282 72.6143Z" fill="#191919"/>
<path d="M126.582 71.9533C123.773 72.1887 122.386 77.335 120.894 77.8278C119.851 78.173 117.511 76.6724 115.147 76.5109C112.783 76.3493 111.437 77.3481 110.995 77.1374C110.554 76.9266 110.859 75.0816 110.859 74.6511C110.859 74.2206 110.624 73.9853 110.207 74.9348C109.791 75.8844 105.729 84.9995 107.496 87.4521C110.021 90.9568 120.328 91.6989 123.528 89.2881C127.539 86.2656 124.125 76.5584 125.113 74.0296C125.299 73.6681 125.596 73.3753 125.959 73.1939C126.323 73.0125 126.735 72.9519 127.136 73.021C128.487 73.6064 128.115 77.613 125.956 76.9857C125.413 76.829 125.29 77.5113 125.792 77.7745C127.259 78.5461 128.698 77.3432 128.89 75.3268C129.034 73.8 128.516 71.7918 126.582 71.9533ZM115.396 81.0553C113.36 81.0553 112.949 80.2476 112.777 78.9233C114.54 79.3021 116.366 79.2704 118.114 78.8307C117.928 80.041 117.669 81.0586 115.396 81.0586V81.0553Z" fill="#191919"/>
<path d="M114.423 72.4527C114.046 73.3219 113.763 74.2291 113.581 75.1587C113.378 76.2616 114.845 76.2649 115.672 76.1378C116.164 76.0623 116.254 75.5015 115.715 75.4621C115.319 75.4326 114.541 75.4129 114.467 75.276C114.535 74.3611 114.711 73.4574 114.991 72.5839C115.105 72.2231 114.578 72.0821 114.423 72.4527Z" fill="#191919"/>
<path d="M112.093 72.652C112.549 72.4781 112.585 71.2506 112.196 71.0218C111.213 70.438 111.076 73.0357 112.093 72.652Z" fill="#191919"/>
<path d="M120.116 29.4626C82.1923 29.4921 41.9336 29.4044 4.58752 29.7225C3.9512 29.7274 3.93644 31.3625 4.54816 31.3666C42.3543 31.6036 82.1726 31.3084 120.076 31.2789C120.757 31.2781 120.772 29.4626 120.116 29.4626Z" fill="#191919"/>
<path d="M76.9097 116.755C70.4317 116.369 60.3974 115.102 54.3523 112.506C53.575 112.172 49.7349 112.799 45.375 110.784C44.9191 110.575 44.7378 111.217 45.1642 111.48C47.3922 112.852 50.2064 113.218 52.7763 113.301C53.467 113.283 54.1515 113.436 54.7689 113.746C61.8915 116.301 69.3925 117.641 76.9589 117.711C77.5805 117.72 77.5608 116.794 76.9097 116.755Z" fill="#191919"/>
<path d="M150.56 114.895C150.433 114.205 149.503 114.448 149.619 115.135C150.02 117.598 149.861 120.121 149.154 122.515C147.481 128.347 142.556 127.412 137.626 127.184C132.452 126.947 125.326 126.451 120.855 126.245C120.756 126.232 120.657 126.258 120.577 126.317C120.497 126.377 120.443 126.465 120.428 126.563C120.412 126.662 120.435 126.762 120.493 126.844C120.55 126.925 120.637 126.981 120.735 126.999C125.036 127.682 134.223 128.086 137.802 128.256C142.698 128.489 148.159 129.142 149.982 123.474C150.878 120.706 151.077 117.759 150.56 114.895Z" fill="#191919"/>
<path d="M118.471 117.818C124.806 116.81 131.188 116.122 137.592 115.757C137.696 115.748 137.792 115.699 137.86 115.62C137.928 115.542 137.963 115.44 137.958 115.336C137.953 115.232 137.908 115.135 137.833 115.063C137.757 114.992 137.657 114.952 137.553 114.953C131.105 115.218 124.678 115.872 118.309 116.911C118.189 116.933 118.082 117.002 118.013 117.102C117.943 117.203 117.916 117.326 117.938 117.447C117.96 117.567 118.028 117.673 118.129 117.743C118.229 117.812 118.353 117.839 118.473 117.818H118.471Z" fill="#191919"/>
<path d="M51.024 110.725C51.0922 110.724 51.1597 110.71 51.2222 110.683C51.2848 110.656 51.3413 110.616 51.3883 110.567C51.4353 110.517 51.4718 110.459 51.4957 110.395C51.5196 110.331 51.5304 110.263 51.5275 110.195C51.5245 110.127 51.5078 110.06 51.4784 109.998C51.449 109.937 51.4075 109.882 51.3564 109.837C51.3053 109.791 51.2456 109.757 51.1809 109.735C51.1161 109.714 51.0478 109.706 50.9798 109.711C47.9359 109.809 46.4001 108.944 44.3911 107.518C44.0729 107.292 43.7351 107.69 43.9811 108.01C45.4111 109.9 48.7477 110.813 51.024 110.725Z" fill="#191919"/>
<path d="M56.0878 105.534C56.4584 106.177 57.2358 106.264 57.9279 106.42C62.0156 107.349 71.3693 107.039 75.7079 106.989C76.3246 106.981 76.1999 106.184 75.5661 106.19C72.3984 106.222 62.838 106.312 58.0943 105.436C57.2186 105.272 57.2637 105.402 56.8168 104.698C55.9722 103.365 54.7127 101.734 53.185 101.707C52.7291 101.699 52.693 102.138 53.0817 102.334C54.4312 103.01 55.4966 104.145 56.0878 105.534Z" fill="#191919"/>
<path d="M53.3815 105.716C51.2643 105.094 48.2721 104.097 46.6263 101.971C46.1343 101.333 45.7161 101.829 45.9605 102.343C46.9855 104.502 50.7378 106.443 52.892 106.525C54.0834 106.575 53.7521 105.824 53.3815 105.716Z" fill="#191919"/>
<path d="M44.8067 104.042C44.7391 103.96 44.6425 103.907 44.5368 103.894C44.4312 103.88 44.3244 103.908 44.2385 103.971C44.1527 104.034 44.0942 104.127 44.0751 104.232C44.056 104.337 44.0778 104.445 44.136 104.534C44.9176 105.656 45.9327 106.595 47.1114 107.287C48.2902 107.979 49.6048 108.407 50.9649 108.543C51.0721 108.547 51.1775 108.516 51.2652 108.454C51.3528 108.392 51.418 108.304 51.4507 108.202C51.4833 108.1 51.4818 107.99 51.4462 107.888C51.4106 107.787 51.343 107.701 51.2536 107.641C50.5344 107.331 47.4775 107.132 44.8067 104.042Z" fill="#191919"/>
<path d="M139.208 129.13C137.739 128.939 120.704 129.316 119.915 128.993C119.126 128.67 115.046 105.432 113.98 103.905C112.914 102.379 79.3353 103.347 77.8085 104.229C76.2817 105.11 81.3238 131.653 82.6301 132.191C83.7953 132.669 137.457 132.004 139.21 131.912C140.963 131.819 140.676 129.321 139.208 129.13ZM96.9022 121.494C92.3209 121.875 90.885 114.36 95.4631 113.613C97.6361 113.258 99.5508 115.185 99.9567 117.558C100.041 118.02 100.027 118.495 99.9154 118.952C99.8038 119.409 99.5971 119.837 99.3089 120.208C99.0206 120.58 98.6573 120.886 98.2426 121.108C97.8279 121.329 97.3712 121.461 96.9022 121.494Z" fill="#191919"/>
</svg>

<svg xmlns="http://www.w3.org/2000/svg" fill="none" viewBox="0 0 164 164"><path fill="#71b6f6" d="M86.926 102.402c13.417-.68 25.71-.989 27.692.123 1.021.574 2.609 8.118 3.339 13.163 4.121-.492 9.3-.945 14.475-1.297-.769-3.882-1.243-6.314-2.986-10.065-.264-.568.459-.798.754-.279a31.2 31.2 0 0 1 3.466 10.28c7.005-.46 13.917-.738 18.249-.738-.492-4.24-3.217-14.01-8.102-19.019-3.765-3.86-11.07-7.297-17.535-8.11a4.9 4.9 0 0 1-3.132 4.038c-3.454 1.357-9.758 1.713-15.382-1.376-5.932 1.693-16.805 8.15-20.838 13.28m72.322 30.175c-35.377.665-70.594.534-105.952.574-.716 0-.877 1.117-.138 1.131 35.28.651 70.979-.116 106.252-.548.754-.007.588-1.171-.162-1.157M72.142 62.678c3.632.068 21.332-.262 23.214-.343.567-.025.552-1.004 0-1.004-2.527 0-19.148.32-23.214.534a.41.41 0 0 0 0 .813m-14.496-4.534c-.264.138-4.83 5.627-2.726 4.974.298-.093 3.28-3.87 3.426-4.548a.436.436 0 0 0-.7-.426m-9.951-12.47c1.469.069 31.374-.006 33.156-.181a1.03 1.03 0 0 0-.063-2.05c-8.322.103-25.622.146-33.046.308-1.113.026-1.207 1.87-.047 1.923m41.86 31.556c-1.924 0-16.557-.163-17.594.133-.352.102-.492.672-.069.793 1.106.317 15.663.156 17.672.156s3.96.073 5.929 0c.602-.022.558-1.03-.04-1.056-1.958-.088-3.936-.025-5.898-.025M71.73 84.892a.49.49 0 0 0-.332.607c.169.574-.59.377 24.349.793a.559.559 0 0 0 0-1.111c-23.924-.386-22.44-.411-24.016-.289m23.483-14.216a.54.54 0 0 0 .033-1.072c-3.558-.098-20.12-.236-23.124.362-.492.098-.382.815.088.857 2.541.228 6.426-.625 23.003-.147m21.872-14.568c.045-7.064.373-15.875-.22-22.73a.42.42 0 0 0-.439-.354.423.423 0 0 0-.398.4c-.193 3.287-.012 18.566 0 22.762.001.69 1.053.612 1.057-.078M55.204 88.832a39 39 0 0 0 3.236 3.153c.492.463 1.25-.275.755-.738a44 44 0 0 0-3.345-3.034c-.355-.227-.92.238-.646.62M9.758 33.379c0-.617-.97-.73-.979-.098-.323 26.122.108 56.506 1.356 82.492.035.72 1.148.544 1.111-.171C9.928 88.113 9.72 60.891 9.758 33.379m12.335 58.288c-.276.41.363.931.685.549.416-.492 2.827-3.286 2.706-3.887-.332-1.593-2.92 2.642-3.391 3.338m18.039-13.251c-.42-.078-3.089 2.29-3.628 2.804-5.037-3.294-4.536-2.483-4.473-.492q.028 2.045.283 4.073c.062.427.711.353.738-.063.103-1.523-.093-3.04-.118-4.562 4.436 2.706 3.065 2.623 7.206-.77.492.544 2.835 2.824 3.544 2.737.574-.07 2.507-2.668 2.967-3.221 0 1.175.038 4.529.386 5.478.18.492.656.318.68-.171.062-1.043-.065-3.516-.062-4.72 0-1.37-.004-1.721-.578-2.541-1.247-1.781-4.404-6.145-6.33-8.513-1.697-2.087-1.771-2.132-2.962-.288-1.834 2.844-4.913 8.364-5.384 9.413-.2.442.482.65.72.323.788-1.09 2.574-4.293 3.396-5.703a49 49 0 0 0 5.547-.093 96 96 0 0 1 4.346 5.576l-2.824 3.426c-.385-.305-3.028-2.614-3.454-2.693m14.128 36.712c-4.406-.246-40.283-.053-41.683.164a.49.49 0 0 0-.34.496.49.49 0 0 0 .393.454c13.566.039 27.963-.069 41.552-.054.66 0 .774-1.019.078-1.06M23.822 64.356c.485.542 1.23-.137.826-.597-.979-1.111-3.076-3.634-4.043-4.484-.383-.337-.902.19-.631.592.695 1.038 2.89 3.42 3.848 4.489m15.784-4.824a36.3 36.3 0 0 0-.377-6.364.451.451 0 0 0-.82.082 40 40 0 0 0 .309 6.363.45.45 0 0 0 .887-.081m.718 31.748c0 .68-.18 5.199.064 5.792a.492.492 0 0 0 .852 0c.255-.651-.035-4.896-.069-5.792-.044-.48-.847-.49-.847 0"/><path fill="#71b6f6" d="M19.807 76.458c9.959-18.73 32.66-16.762 41.008-1.518-9.863 15.053-29.186 17.331-41.053 2.858-.371-.45-.83.126-.492.598 10.433 14.514 32.727 12.62 41.932-2.05a2.28 2.28 0 0 0 .142-2.663C51.22 56.348 25.868 59.467 19.12 76.015c-.2.492.445.896.686.444"/><path fill="#191919" d="M110.58 57.434c-2.565.492-4.827 6.096-1.997 8.719 1.732 1.606 9.712 1.674 14.549 1.468.035.592.162 1.175.376 1.728.193.492.77.648.627-.24a9 9 0 0 1-.108-1.527 39 39 0 0 0 2.252-.164 31 31 0 0 1-.563 3.25c-.135.588.525.698.749.137.687-1.774.964-3.68.813-5.576-.292-4.18-12.012-8.695-16.698-7.795m.808 2.208c-1.18.27-1.459 2.062-1.566 3.02-.185 1.64-1.23.493-.98-.95.192-1.087 1.121-2.858 2.477-2.682a.31.31 0 0 1 .323.273.31.31 0 0 1-.254.339"/><path fill="#191919" d="M120.17 74.308a10.7 10.7 0 0 0 1.327-3.588c1.102.2 2.152.618 3.089 1.23.558.24.769-.492.492-.72a6.46 6.46 0 0 0-3.53-1.428c-.597-1.131-5.135-1.394-5.835-.201a1.4 1.4 0 0 0-1.136-.103c-.357-.979-4.381-1.224-5.384-.093-1.155-.127-1.635.94-.108.93a12 12 0 0 0 .583 3.116c.395.808 3.237.796 3.803.387.673-.487.979-2.61 1.17-3.427.277-.087.577-.07.842.05a13.8 13.8 0 0 0 .372 3.255c.434.864 3.685 1.337 4.315.592m-7.01-1.41c-.134.322-.254.4-1.332.357-1.82-.072-1.439.323-1.996-3.343a6.15 6.15 0 0 1 3.955 0 8.1 8.1 0 0 1-.627 2.986m3.427.371a12 12 0 0 1-.216-3.064 5.93 5.93 0 0 1 4.323.132 7.5 7.5 0 0 1-.612 2.335c-.466 1.02-.543 1.153-2.012 1.034-.705-.058-1.384-.214-1.483-.436"/><path fill="#191919" d="M117.282 72.614c.153.553 1.23.618.979-.979-.143-.908-1.424-.623-.979.98"/><path fill="#191919" d="M126.582 71.953c-2.809.236-4.196 5.382-5.688 5.875-1.043.345-3.383-1.156-5.747-1.317s-3.71.837-4.152.626c-.441-.21-.136-2.055-.136-2.486 0-.43-.235-.666-.652.284-.416.95-4.478 10.064-2.711 12.517 2.525 3.505 12.832 4.247 16.032 1.836 4.011-3.022.597-12.73 1.585-15.258a1.91 1.91 0 0 1 2.023-1.009c1.351.585.979 4.592-1.18 3.965-.543-.157-.666.525-.164.788 1.467.772 2.906-.43 3.098-2.447.144-1.527-.374-3.535-2.308-3.374m-11.186 9.102c-2.036 0-2.447-.807-2.619-2.132 1.763.38 3.589.347 5.337-.092-.186 1.21-.445 2.228-2.718 2.228z"/><path fill="#191919" d="M114.423 72.453c-.377.869-.66 1.776-.842 2.706-.203 1.103 1.264 1.106 2.091.979.492-.076.582-.637.043-.676-.396-.03-1.174-.05-1.248-.186.068-.915.244-1.819.524-2.692.114-.36-.413-.502-.568-.131m-2.33.199c.456-.174.492-1.401.103-1.63-.983-.584-1.12 2.014-.103 1.63m8.023-43.189c-37.924.03-78.182-.059-115.528.26-.637.004-.652 1.64-.04 1.644 37.806.237 77.625-.059 115.528-.088.681 0 .696-1.816.04-1.816M76.91 116.755c-6.478-.386-16.513-1.653-22.558-4.249-.777-.334-4.617.293-8.977-1.722-.456-.209-.637.433-.21.696 2.227 1.372 5.041 1.738 7.611 1.821a4.2 4.2 0 0 1 1.993.445 67.6 67.6 0 0 0 22.19 3.965c.621.009.602-.917-.05-.956m73.651-1.86c-.127-.69-1.057-.447-.941.24a16.6 16.6 0 0 1-.465 7.38c-1.673 5.832-6.598 4.897-11.528 4.669-5.174-.237-12.3-.733-16.771-.939a.383.383 0 0 0-.362.599.38.38 0 0 0 .242.155c4.301.683 13.488 1.087 17.067 1.257 4.896.233 10.357.886 12.18-4.782a17.7 17.7 0 0 0 .578-8.579m-32.089 2.923a191 191 0 0 1 19.121-2.061.403.403 0 0 0-.039-.804c-6.448.265-12.875.919-19.244 1.958a.461.461 0 0 0 .164.907zm-67.447-7.093a.52.52 0 0 0 .364-.158.51.51 0 0 0 .09-.569.51.51 0 0 0-.498-.287c-3.044.098-4.58-.767-6.589-2.193-.318-.226-.656.172-.41.492 1.43 1.89 4.767 2.803 7.043 2.715m5.064-5.191c.37.643 1.148.73 1.84.886 4.088.929 13.441.619 17.78.569.617-.008.492-.805-.142-.799-3.168.032-12.728.122-17.472-.754-.875-.164-.83-.034-1.277-.738-.845-1.333-2.104-2.964-3.632-2.991-.456-.008-.492.431-.103.627a6.37 6.37 0 0 1 3.006 3.2m-2.706.182c-2.118-.622-5.11-1.619-6.756-3.745-.492-.638-.91-.142-.665.372 1.025 2.159 4.777 4.1 6.931 4.182 1.191.05.86-.701.49-.809m-8.575-1.674a.415.415 0 0 0-.569-.071.416.416 0 0 0-.102.563 9.47 9.47 0 0 0 6.829 4.009.49.49 0 0 0 .486-.341.495.495 0 0 0-.197-.561c-.72-.31-3.776-.509-6.447-3.599"/><path fill="#191919" d="M139.208 129.13c-1.469-.191-18.504.186-19.293-.137s-4.869-23.561-5.935-25.088c-1.066-1.526-34.645-.558-36.172.324-1.526.881 3.516 27.424 4.822 27.962 1.165.478 54.827-.187 56.58-.279s1.466-2.591-.002-2.782m-42.306-7.636c-4.581.381-6.017-7.134-1.439-7.881 2.173-.355 4.088 1.572 4.494 3.945a3.345 3.345 0 0 1-3.055 3.936"/></svg>
